assets/icons/24px/stroke/pocket-24px.svg

<svg width="24" height="24" viewBox="0 0 24 24" fill="none" xmlns="http://www.w3.org/2000/svg">
<path fill-rule="evenodd" clip-rule="evenodd" d="M5.98064 2.5H18.0194C18.4638 2.49999 18.8472 2.49998 19.1645 2.5219C19.4986 2.545 19.8327 2.5958 20.1622 2.73428C20.8859 3.0384 21.4616 3.61407 21.7657 4.33776C21.9042 4.6673 21.955 5.00138 21.9781 5.33549C22 5.65278 22 6.03625 22 6.48068L22 8.55857C21.9947 11.3093 21.322 14.0177 20.0396 16.4513L20.0098 16.5077C19.9632 16.5956 19.9367 16.6458 19.9179 16.6806C16.5161 22.9756 7.4839 22.9756 4.08213 16.6806C4.06386 16.6468 4.03829 16.5985 3.99423 16.5153L3.96039 16.4513C2.678 14.0177 2.00531 11.3093 2.00003 8.55857L2 6.48064C1.99999 6.03623 1.99998 5.65277 2.0219 5.33549C2.045 5.00138 2.0958 4.6673 2.23428 4.33776C2.5384 3.61407 3.11407 3.0384 3.83776 2.73428C4.1673 2.5958 4.50138 2.545 4.83549 2.5219C5.15277 2.49998 5.53623 2.49999 5.98064 2.5ZM4.97339 4.51715C4.74251 4.5331 4.65472 4.56039 4.61259 4.57809C4.37136 4.67947 4.17947 4.87136 4.07809 5.11259C4.06039 5.15472 4.0331 5.24251 4.01715 5.47339C4.00056 5.71341 4 6.02712 4 6.51305L4.00003 8.55474C4.00468 10.9819 4.59824 13.3716 5.72975 15.5189L5.75782 15.572C5.80682 15.6645 5.82803 15.7045 5.84166 15.7298C8.48748 20.6259 15.5125 20.6259 18.1583 15.7298C18.172 15.7045 18.1932 15.6645 18.2422 15.572L18.2702 15.5189C19.4018 13.3716 19.9953 10.9819 20 8.55474L20 6.51305C20 6.02712 19.9994 5.71341 19.9829 5.47339C19.9669 5.24251 19.9396 5.15472 19.9219 5.11259C19.8205 4.87136 19.6286 4.67947 19.3874 4.57809C19.3453 4.56039 19.2575 4.5331 19.0266 4.51715C18.7866 4.50056 18.4729 4.5 17.987 4.5H6.01305C5.52712 4.5 5.21341 4.50056 4.97339 4.51715Z" fill="white"/>
<path fill-rule="evenodd" clip-rule="evenodd" d="M7.29289 9.29289C7.68342 8.90237 8.31658 8.90237 8.70711 9.29289L11.2929 11.8787C11.6462 12.232 11.8416 12.4244 11.9941 12.5408C11.9961 12.5423 11.9981 12.5438 12 12.5452C12.0019 12.5438 12.0039 12.5423 12.0059 12.5408C12.1584 12.4244 12.3538 12.232 12.7071 11.8787L15.2929 9.29289C15.6834 8.90237 16.3166 8.90237 16.7071 9.29289C17.0976 9.68342 17.0976 10.3166 16.7071 10.7071L14.1213 13.2929C14.1085 13.3057 14.0957 13.3186 14.0829 13.3314C13.7831 13.6313 13.4917 13.9228 13.219 14.1308C12.9116 14.3653 12.5137 14.5858 12 14.5858C11.4863 14.5858 11.0884 14.3653 10.781 14.1308C10.5083 13.9228 10.2169 13.6313 9.91715 13.3314C9.90434 13.3186 9.89152 13.3057 9.87868 13.2929L7.29289 10.7071C6.90237 10.3166 6.90237 9.68342 7.29289 9.29289Z" fill="white"/>
</svg>

<svg width="24" height="24" fill="none" xmlns="http://www.w3.org/2000/svg"><path fill-rule="evenodd" clip-rule="evenodd" d="M5.98 2.5h12.04c.444 0 .827 0 1.145.022.334.023.668.074.997.212a3 3 0 0 1 1.604 1.604c.138.33.189.663.212.997.022.318.022.701.022 1.146v2.078a17 17 0 0 1-1.96 7.892l-.03.057-.092.173c-3.402 6.295-12.434 6.295-15.836 0l-.088-.166-.034-.064A17 17 0 0 1 2 8.56V6.48c0-.445 0-.828.022-1.146.023-.334.074-.668.212-.997a3 3 0 0 1 1.604-1.604c.33-.138.663-.189.997-.212.318-.022.701-.022 1.146-.022zM4.974 4.517c-.23.016-.318.043-.36.061a1 1 0 0 0-.535.535c-.018.042-.045.13-.06.36C4 5.713 4 6.027 4 6.513v2.042a15 15 0 0 0 1.73 6.964l.028.053.084.158c2.645 4.896 9.67 4.896 12.316 0l.084-.158.028-.053A15 15 0 0 0 20 8.555V6.513c0-.486 0-.8-.017-1.04-.016-.23-.043-.318-.061-.36a1 1 0 0 0-.535-.535c-.042-.018-.13-.045-.36-.06-.24-.017-.554-.018-1.04-.018H6.013c-.486 0-.8 0-1.04.017z" fill="#fff"/><path fill-rule="evenodd" clip-rule="evenodd" d="M7.293 9.293a1 1 0 0 1 1.414 0l2.586 2.586c.353.353.549.545.701.662l.006.004.006-.004c.152-.117.348-.309.701-.662l2.586-2.586a1 1 0 1 1 1.414 1.414l-2.586 2.586-.038.038c-.3.3-.591.592-.864.8-.307.234-.705.455-1.219.455-.514 0-.912-.22-1.219-.455-.273-.208-.564-.5-.864-.8l-.038-.038-2.586-2.586a1 1 0 0 1 0-1.414z" fill="#fff"/></svg>
